Adwaita++/emblems/16/emblem-new.svg

<svg fill="none" height="16" viewBox="0 0 16 16" width="16" xmlns="http://www.w3.org/2000/svg">
  <path d="m13.6 1h-11.2c-.7732 0-1.4.6268-1.4 1.4v11.2c0 .7732.6268 1.4 1.4 1.4h11.2c.7732 0 1.4-.6268 1.4-1.4v-11.2c0-.7732-.6268-1.4-1.4-1.4z" fill="#e5a50a"/>
  <path d="m3.00085 6.72881h3.66667l1.33333-3.72881 1.33334 3.72881h3.66671l-2.8334 2.37289 1.3334 3.8983-3.46965-1.9688-3.5304 1.9688 1.33334-3.8983z" fill="#f6f5f4"/>
</svg>

<svg xmlns="http://www.w3.org/2000/svg" fill="none" width="16" height="16" viewBox="0 0 16 16">
 <path fill="url(#paint0_linear)" d="M13.6 1H2.4C1.6268 1 1 1.6268 1 2.4V13.6C1 14.3732 1.6268 15 2.4 15H13.6C14.3732 15 15 14.3732 15 13.6V2.4C15 1.6268 14.3732 1 13.6 1Z"/>
 <path fill="url(#paint1_linear)" d="M3.00085 6.72881H6.66752L8.00085 3L9.33419 6.72881H13.0009L10.1675 9.1017L11.5009 13L8.03125 11.0312L4.50085 13L5.83419 9.1017L3.00085 6.72881Z"/>
 <defs>
  <linearGradient id="paint0_linear" x1="1" x2="15" y1="8" y2="8" gradientUnits="userSpaceOnUse">
   <stop stop-color="#E5A50A"/>
  </linearGradient>
  <linearGradient id="paint1_linear" x1="3.001" x2="13.001" y1="8" y2="8" gradientUnits="userSpaceOnUse">
   <stop stop-color="#F6F5F4"/>
  </linearGradient>
 </defs>
</svg>
